packages/axiom-components/src/Pictogram/svgs/polar-chart.svg

<svg height="16" viewBox="0 0 16 16" width="16" xmlns="http://www.w3.org/2000/svg"><g><path d="m8 14.5c3.5898509 0 6.5-2.9101491 6.5-6.5 0-3.58985087-2.9101491-6.5-6.5-6.5-3.58985087 0-6.5 2.91014913-6.5 6.5 0 3.5898509 2.91014913 6.5 6.5 6.5zm0 1.5c-4.418278 0-8-3.581722-8-8s3.581722-8 8-8 8 3.581722 8 8-3.581722 8-8 8z"/><path d="m8 11.5c1.93299662 0 3.5-1.56700338 3.5-3.5s-1.56700338-3.5-3.5-3.5-3.5 1.56700338-3.5 3.5 1.56700338 3.5 3.5 3.5zm0 1.5c-2.76142375 0-5-2.2385763-5-5 0-2.76142375 2.23857625-5 5-5 2.7614237 0 5 2.23857625 5 5 0 2.7614237-2.2385763 5-5 5z" fill-opacity=".75"/><path d="m8 10c-1.1045695 0-2-.8954305-2-2s.8954305-2 2-2 2 .8954305 2 2-.8954305 2-2 2z" fill-opacity=".3"/></g></svg>

<?xml version="1.0" encoding="UTF-8"?>
<svg width="16px" height="16px" viewBox="0 0 16 16" version="1.1" xmlns="http://www.w3.org/2000/svg" xmlns:xlink="http://www.w3.org/1999/xlink">
    <!-- Generator: Sketch 46.2 (44496) - http://www.bohemiancoding.com/sketch -->
    <title>Polar Chart</title>
    <desc>Created with Sketch.</desc>
    <defs></defs>
    <g id="Axiom-Icons" stroke="none" stroke-width="1" fill="none" fill-rule="evenodd">
        <g id="Polar-Chart" fill-rule="nonzero" fill="#000000">
            <path d="M8,14.5 C11.5898509,14.5 14.5,11.5898509 14.5,8 C14.5,4.41014913 11.5898509,1.5 8,1.5 C4.41014913,1.5 1.5,4.41014913 1.5,8 C1.5,11.5898509 4.41014913,14.5 8,14.5 Z M8,16 C3.581722,16 0,12.418278 0,8 C0,3.581722 3.581722,0 8,0 C12.418278,0 16,3.581722 16,8 C16,12.418278 12.418278,16 8,16 Z" id="Oval"></path>
            <path d="M8,11.5 C9.93299662,11.5 11.5,9.93299662 11.5,8 C11.5,6.06700338 9.93299662,4.5 8,4.5 C6.06700338,4.5 4.5,6.06700338 4.5,8 C4.5,9.93299662 6.06700338,11.5 8,11.5 Z M8,13 C5.23857625,13 3,10.7614237 3,8 C3,5.23857625 5.23857625,3 8,3 C10.7614237,3 13,5.23857625 13,8 C13,10.7614237 10.7614237,13 8,13 Z" id="Oval" fill-opacity="0.75"></path>
            <path d="M8,10 C6.8954305,10 6,9.1045695 6,8 C6,6.8954305 6.8954305,6 8,6 C9.1045695,6 10,6.8954305 10,8 C10,9.1045695 9.1045695,10 8,10 Z" id="Oval" fill-opacity="0.3"></path>
        </g>
    </g>
</svg>
